images/svg/yt-blue.svg

<svg width="24" height="18" viewBox="0 0 24 18" fill="none" xmlns="http://www.w3.org/2000/svg">
<path d="M23.8418 3.97453C23.8418 1.86516 22.2902 0.168281 20.3731 0.168281C17.7762 0.0468748 15.1277 0 12.4212 0H11.5774C8.87743 0 6.22431 0.0468749 3.62743 0.16875C1.71493 0.16875 0.163371 1.875 0.163371 3.98437C0.0461835 5.65266 -0.00350401 7.32141 -0.000691512 8.99016C-0.00537901 10.6589 0.047746 12.3292 0.158683 14.0011C0.158683 16.1105 1.71025 17.8214 3.62275 17.8214C6.35087 17.948 9.14931 18.0042 11.9946 17.9995C14.8446 18.0089 17.6352 17.9495 20.3665 17.8214C22.2837 17.8214 23.8352 16.1105 23.8352 14.0011C23.9477 12.3277 23.9993 10.6589 23.9946 8.98547C24.0052 7.31672 23.9543 5.64641 23.8418 3.97453ZM9.70243 13.5886V4.37766L16.4993 8.98078L9.70243 13.5886Z" fill="#115DA3"/>
</svg>

<svg width="24" height="18" fill="none" xmlns="http://www.w3.org/2000/svg"><path d="M23.842 3.975c0-2.11-1.552-3.807-3.469-3.807A170.478 170.478 0 0012.421 0h-.844c-2.7 0-5.353.047-7.95.169C1.715.169.163 1.875.163 3.984A69.731 69.731 0 000 8.99a72.583 72.583 0 00.16 5.011c0 2.11 1.551 3.82 3.464 3.82 2.728.127 5.526.183 8.372.178 2.85.01 5.64-.05 8.371-.178 1.918 0 3.47-1.71 3.47-3.82a72.41 72.41 0 00.159-5.016 68.19 68.19 0 00-.153-5.01zm-14.14 9.614V4.378L16.5 8.98l-6.797 4.608z" fill="#115DA3"/></svg>
